svgs/solid/reply.svg

<svg xmlns="http://www.w3.org/2000/svg" viewBox="0 0 512 512"><!-- Font Awesome Pro 5.15.1 by @fontawesome - https://fontawesome.com License - https://fontawesome.com/license (Commercial License) --><path d="M8.309 189.836L184.313 37.851C199.719 24.546 224 35.347 224 56.015v80.053c160.629 1.839 288 34.032 288 186.258 0 61.441-39.581 122.309-83.333 154.132-13.653 9.931-33.111-2.533-28.077-18.631 45.344-145.012-21.507-183.51-176.59-185.742V360c0 20.7-24.3 31.453-39.687 18.164l-176.004-152c-11.071-9.562-11.086-26.753 0-36.328z"/></svg>

<svg xmlns="http://www.w3.org/2000/svg" viewBox="0 0 512 512"><!-- Font Awesome Pro 6.0.0-alpha2 by @fontawesome - https://fontawesome.com License - https://fontawesome.com/license (Commercial License) --><path d="M8.309 189.846L184.31 37.846C199.716 24.549 223.998 35.346 223.998 56.018V136.065C384.624 137.909 512 170.096 512 322.331C512 383.768 472.406 444.643 428.656 476.456C414.999 486.393 395.562 473.924 400.593 457.831C445.937 312.815 379.093 274.315 223.998 272.081V360.003C223.998 380.706 199.685 391.456 184.31 378.159L8.309 226.159C-2.754 216.596 -2.785 199.409 8.309 189.846Z"/></svg>
